!!!OTL: HOFFNUNG KOMM NUR BALD
!!!ARE: Europa, Mitteleuropa, Deutschland, Coburg
!!!SCT: E0562
!!!YEM: Copyright 1995, estate of Helmut Schaffrath.
**kern
*ICvox
*Ivox
*M4/4
*k[b-]
*F:
{4.f
8g
=1
4a
4a
4g
4g
=2
4f
4r}
{4.a
8b-
=3
4cc
4cc
4b-
4b-
=4
4a
4r}
{4cc
4cc
=5
4dd
8dd
8cc
4b-
8b-
8dd
=6
4cc
4r}
{4a
4a
=7
4b-
8b-
8b-
4g
4g
=8
4f
4r}
{4cc
4cc
=9
4dd
8dd
8cc
4b-
8b-
8dd
=10
4cc
4r}
{4a
4a
=11
4b-
8b-
8b-
4g
4g
=12
4f
4r}
==
!!!AGN: Liebes - Lied
!!!ONB: ESAC (Essen Associative Code) Database: ERK1
!!!AMT: simple quadruple
!!!AIN: vox
!!!EED: Helmut Schaffrath
!!!EEV: 1.0
*-
